X: 378
T: Bir Gün Sevdiğimi Anlayacaksın
C: Ziya Taşkent
O: Turkey
F: http://compmusic.upf.edu/node/140
N: muhayyer--sarki--sofyan--bir_gun--ziya_taskent
N: makam= muhayyer
N: form= sarki
N: usul= sofyan = 4/4
M: 4/4
L: 1/16
K: C _2/4B ^3/4f  
Q: 1/4=66
%%MIDI tuningsystem comma53
z2=ff f2e2 aa3 gfed  | zd2d edcB c4 cBAG  | 
w:   |   | 
z2GG c3B ed3 cBA2  | zcBc3BA A8  | z2=ff f2e2 aa3 gfed  | 
w:   |   |   | 
zd2d edcB c4 cBAG  | z2GG c3B ed3 cBA2  | 
w:   |   | 
zcBc3BA A8  | c'2b2 a3f ga3 g^2/4fed  | \
w:   |  Bir  gün  sev di ği mi   | 
zc2B dB2A A4 gfg2  | 
w:  an la ya cak *  sın   SAZ  | 
z2fg g4 zgfg e4  | a2e2 z2ee d4 =fef2  | \
w:  O  za man  el *  le rin   |  bom boş  ka la cak   SAZ  | 
z2=ff f3e aa3 e3d  | 
w:  Be ni  kay be de cek   | 
zd2d edcB c6B2  | z2GG c2zB ed3 cBA2  | \
w:  ağ la ya cak *  *  sın    |  Gü cü me  gi di yor   | 
zcBc3BA A4 =fef2  | 
w:  böy *  le  ya şa mak   SAZ  | 
z2=ff f3e aa3 e3d  | zd2d edcB c6B2  | \
w:  Be ni  kay be de cek   |  ağ la ya cak *  *  sın    | 
z2GG c2zB ed3 cBA2  | 
w:  Gü cü me  gi di yor   | 
zcBc3BA A8  | z2=ff f2e2 aa3 gfed  | \
w:  böy *  le  ya şa mak    |   | 
zd2d edcB c4 cBAG  | 
w:   | 
z2GG c3B ed3 cBA2  | zcBc3BA A8  | z2=ff f2e2 aa3 gfed  | 
w:   |   |   | 
zd2d edcB c4 cBAG  | z2GG c3B ed3 cBA2  | 
w:   |   | 
zcBc3BA A8  | c'3b a2f2 g2a2 gfed  | \
w:   |  Has re ti  i çin de   | 
c3B dB2A A4 gfg2  | 
w:  hep  du ya cak *  sın   SAZ  | 
fg3 g4 zgfg e4  | a2e2 z2ee d4 =fef2  | \
w:  Se nin  de  göz *  le rin   |  yaş la  do la cak   SAZ  | 
z2=ff f3e a3a ae2d  | 
w:  O  za man  *  yal va ran   | 
zd2d edcB c6B2  | z2GG c2zB ed3 cBA2  | \
w:  sen_ o la cak *  *  sın    |  Gü cü me  gi di yor   | 
zcBc3BA A4 =fef2  | 
w:  böy *  le  ya şa mak   SAZ  | 
z2=ff f3e a3a ae2d  | zd2d edcB c6B2  | \
w:  O  za man  *  yal va ran   |  sen_ o la cak *  *  sın    | 
z2GG c2zB ed3 cBA2  | 
w:  Gü cü me  gi di yor   | 
zcBc3BA A8  | z2=ff f2e2 aa3 gfed  | \
w:  böy *  le  ya şa mak    |   | 
zd2d edcB c4 cBAG  | 
w:   | 
z2GG c3B ed3 cBA2  | zcBc3BA A8  | z2=ff f2e2 aa3 gfed  | 
w:   |   |   | 
zd2d edcB c4 cBAG  | z2GG c3B ed3 cBA2  | 
w:   |   | 
zcBc3BA A8  | c'3b a3f ga3 g^2/4fed  | \
w:   |  Bek le sem  sa çı ma   | 
c2c4dB A4 gfg2  | 
w:  ak lar  do la cak   SAZ  | 
zf2g g4 gf2g e4  | a2e4ed d4 =fef2  | \
w:  Ağ la sam  gö züm *  de   |  yaş  kal ma ya cak   SAZ  | 
z2=ff f2f2 a3a e4  | 
w:  U nu tur sam  aş kı ma   | 
dd3 edcB c6B2  | z2GG c2zB ed3 cBA2  | \
w:  ya zık  *  *  o la cak    |  Gü cü me  gi di yor   | 
zcBc3BA A4 =fef2  | 
w:  böy *  le  ya şa mak   SAZ  | 
z2=ff f2f2 a3a e4  | dd3 edcB c6B2  | \
w:  U nu tur sam  aş kı ma   |  ya zık  *  *  o la cak    | 
z2GG c2zB ed3 cBA2  | 
w:  Gü cü me  gi di yor   | 
zcBc3BA A8  | |


